src/img/chevron-down.svg

<svg fill="none" height="16" viewBox="0 0 16 16" width="16" xmlns="http://www.w3.org/2000/svg" xmlns:xlink="http://www.w3.org/1999/xlink"><mask id="a" height="6" maskUnits="userSpaceOnUse" width="10" x="3" y="5"><path d="m12.4667 6.46665-4.00002 3.99995c-.13334.1334-.26667.2-.46667.2s-.33333-.0666-.46667-.2l-4-3.99995c-.26666-.26667-.26666-.66667 0-.93334.26667-.26666.66667-.26666.93334 0l3.53333 3.53334 3.53329-3.53334c.2667-.26666.6667-.26666.9334 0 .2666.26667.2666.66667 0 .93334z" fill="#fff"/></mask><path d="m12.4667 6.46665-4.00002 3.99995c-.13334.1334-.26667.2-.46667.2s-.33333-.0666-.46667-.2l-4-3.99995c-.26666-.26667-.26666-.66667 0-.93334.26667-.26666.66667-.26666.93334 0l3.53333 3.53334 3.53329-3.53334c.2667-.26666.6667-.26666.9334 0 .2666.26667.2666.66667 0 .93334z" fill="#88898b"/><g mask="url(#a)"><path d="m0 0h16v16h-16z" fill="#88898b"/></g></svg>

<svg width="16" height="16" viewBox="0 0 16 16" fill="none" 
  xmlns="http://www.w3.org/2000/svg">
  <path d="M12.4667 6.46665L8.46668 10.4666C8.33334 10.6 8.20001 10.6666 8.00001 10.6666C7.80001 10.6666 7.66668 10.6 7.53334 10.4666L3.53334 6.46665C3.26668 6.19998 3.26668 5.79998 3.53334 5.53331C3.80001 5.26665 4.20001 5.26665 4.46668 5.53331L8.00001 9.06665L11.5333 5.53331C11.8 5.26665 12.2 5.26665 12.4667 5.53331C12.7333 5.79998 12.7333 6.19998 12.4667 6.46665Z" fill="#88898B"/>
  <mask id="mask0" mask-type="alpha" maskUnits="userSpaceOnUse" x="3" y="5" width="10" height="6">
    <path d="M12.4667 6.46665L8.46668 10.4666C8.33334 10.6 8.20001 10.6666 8.00001 10.6666C7.80001 10.6666 7.66668 10.6 7.53334 10.4666L3.53334 6.46665C3.26668 6.19998 3.26668 5.79998 3.53334 5.53331C3.80001 5.26665 4.20001 5.26665 4.46668 5.53331L8.00001 9.06665L11.5333 5.53331C11.8 5.26665 12.2 5.26665 12.4667 5.53331C12.7333 5.79998 12.7333 6.19998 12.4667 6.46665Z" fill="white"/>
  </mask>
  <g mask="url(#mask0)">
    <rect width="16" height="16" fill="#88898B"/>
  </g>
</svg>
